TV/Source/Nova International.svg

<svg height="202.36078" viewBox="0 0 441.31204 202.35837" width="441.31204" xmlns="http://www.w3.org/2000/svg" xmlns:xlink="http://www.w3.org/1999/xlink"><clipPath id="a"><path d="m280.44 436.06h20.324v-20.585h-20.324z"/></clipPath><clipPath id="b"><path d="m298.45 430.7c-1.023.463-2.716 1.713-3.085 1.992-1.459 1.1-4.38 3.363-4.38 3.363s5.179-5.191 6.936-7.336c.393-.481.757-.938 1.088-1.368.417-.189.963-.415 1.275-.46.286-.04.405.025.463.138.079.17.011.977-2.297 3.671"/></clipPath><linearGradient id="c"><stop offset="0" stop-color="#7c7b7c"/><stop offset=".16096" stop-color="#bcbcbb"/><stop offset=".5" stop-color="#bcbcbb"/><stop offset=".83904" stop-color="#bcbcbb"/><stop offset="1" stop-color="#7c7b7c"/></linearGradient><linearGradient id="d" gradientTransform="matrix(14.733 -12.771 -12.771 -14.733 288.35 438.02)" gradientUnits="userSpaceOnUse" x2="1" xlink:href="#c"/><clipPath id="e"><path d="m299.14 422.36c-.5.843-1.34 1.957-2.274 3.104-.827.447-1.948 1.124-3.301 2.098-4.051 2.916-8.9 6.795-8.9 6.795s2.926-2.994 7.297-7.584c1.953-2.052 3.373-3.833 4.328-5.17.626-.326 3.012-1.512 3.39-.849.076.142.077.565-.54 1.606"/></clipPath><linearGradient id="f" gradientTransform="matrix(14.733 -12.771 -12.771 -14.733 284.71 433.82)" gradientUnits="userSpaceOnUse" x2="1" xlink:href="#c"/><clipPath id="g"><path d="m294.19 418.26c-.389.584-.908 1.3-1.499 2.068-.409.261-.908.581-1.524.979-3.166 2.047-10.577 7.903-10.577 7.903l.009-.008c.191-.186 3.944-3.832 7.104-7.372 1.565-1.753 2.684-3.168 3.398-4.21 1.265-.822 3.086-1.788 3.72-1.431.136.104.397.533-.631 2.071"/></clipPath><linearGradient id="h" gradientTransform="matrix(14.725 -12.765 -12.765 -14.725 280.44 428.9)" gradientUnits="userSpaceOnUse" x2="1" xlink:href="#c"/><clipPath id="i"><path d="m287.54 417.38c-.003.004-.006.008-.01.013-.675.456-1.304.875-2.234 1.555-2.351 1.72-4.598 3.99-4.838 3.793-.01-.008-.015-.022-.017-.042 0-.01.001-.02.002-.031.001-.003.001-.006.001-.008.036-.224.385-.881 2.355-2.847 1.381-1.377 2.501-2.515 2.812-3.003.719-.515 1.878-1.172 2.57-1.335.051-.01.089-.005.13-.002.476.067-.248 1.202-.771 1.907"/></clipPath><linearGradient id="j" gradientTransform="matrix(14.683 -12.729 -12.729 -14.683 277.24 425.19)" gradientUnits="userSpaceOnUse" x2="1" xlink:href="#c"/><g clip-path="url(#a)" transform="matrix(6.5145038 0 0 -6.5145038 -1720.5456 2840.8762)"><g clip-path="url(#b)"><path d="m298.45 430.7c-1.023.463-2.716 1.713-3.085 1.992-1.459 1.1-4.38 3.363-4.38 3.363s5.179-5.191 6.936-7.336c.393-.481.757-.938 1.088-1.368.417-.189.963-.415 1.275-.46.286-.04.405.025.463.138.079.17.011.977-2.297 3.671" fill="url(#d)"/></g><g clip-path="url(#e)"><path d="m299.14 422.36c-.5.843-1.34 1.957-2.274 3.104-.827.447-1.948 1.124-3.301 2.098-4.051 2.916-8.9 6.795-8.9 6.795s2.926-2.994 7.297-7.584c1.953-2.052 3.373-3.833 4.328-5.17.626-.326 3.012-1.512 3.39-.849.076.142.077.565-.54 1.606" fill="url(#f)"/></g><g clip-path="url(#g)"><path d="m294.19 418.26c-.389.584-.908 1.3-1.499 2.068-.409.261-.908.581-1.524.979-3.166 2.047-10.577 7.903-10.577 7.903l.009-.008c.191-.186 3.944-3.832 7.104-7.372 1.565-1.753 2.684-3.168 3.398-4.21 1.265-.822 3.086-1.788 3.72-1.431.136.104.397.533-.631 2.071" fill="url(#h)"/></g><g clip-path="url(#i)"><path d="m287.54 417.38c-.003.004-.006.008-.01.013-.675.456-1.304.875-2.234 1.555-2.351 1.72-4.598 3.99-4.838 3.793-.01-.008-.015-.022-.017-.042 0-.01.001-.02.002-.031.001-.003.001-.006.001-.008.036-.224.385-.881 2.355-2.847 1.381-1.377 2.501-2.515 2.812-3.003.719-.515 1.878-1.172 2.57-1.335.051-.01.089-.005.13-.002.476.067-.248 1.202-.771 1.907" fill="url(#j)"/></g></g><g fill="#d0343a"><path d="m0 0c-.063.181-.126.42-.118.505-.001-.179.252-.786 2.359-2.887 1.763-1.758 3.107-3.132 2.875-3.254-.233-.12-1.295.492-2.275 1.379-1.269 1.148-2.266 2.621-2.841 4.257" transform="matrix(6.5145038 0 0 -6.5145038 107.16359 90.452704)"/><path d="m0 0c-1.13-.125-2.294-.063-3.404.178.721-.114-.077 1.145-.641 1.905-.821 1.106-2.067 2.55-3.207 3.782-1.896 2.051-4.367 4.443-4.367 4.443-.008 1.266.211 2.48.619 3.605 0 0 3.871-3.746 7.114-7.38 2.095-2.348 3.392-4.087 3.988-5.141.334-.592.538-1.294-.102-1.392" transform="matrix(6.5145038 0 0 -6.5145038 179.01856 135.40277)"/><path d="m0 0c-1.896 2.105-3.813 3.949-3.813 3.949 3.587-1.245 6.276-4.345 6.885-8.171.03-.192-.002-.277-.02-.312.088.188.005 1.138-3.052 4.534" transform="matrix(6.5145038 0 0 -6.5145038 218.75704 29.476944)"/><path d="m0 0c-.16-1.218-.605-2.475-1.121-3.407.076.142.077.565-.54 1.606-1.182 1.994-4.257 5.503-6.026 7.38-2.518 2.671-5.767 5.882-5.767 5.882s.844.267 1.692.372c1.332.165 1.95.058 1.95.058s5.179-5.191 6.936-7.336c1.757-2.147 2.969-3.853 2.876-4.555" transform="matrix(6.5145038 0 0 -6.5145038 239.01714 77.684274)"/><path d="m0 0c-.83-.785-1.843-1.466-2.829-1.915.136.104.397.533-.631 2.071-1.061 1.59-3.076 4.16-4.923 6.124-2.199 2.337-7.264 7.451-7.264 7.451s.507.719 1.277 1.434c.736.683 1.382 1.09 1.382 1.09s2.926-2.994 7.297-7.584c2.832-2.976 4.542-5.379 5.34-6.689.428-.704.788-1.567.351-1.982" transform="matrix(6.5145038 0 0 -6.5145038 218.49646 117.16216)"/><path d="m0 0h3.69v-1.93c1.023 1.362 2.641 2.214 4.6 2.214 3.52 0 5.933-2.555 5.933-6.047v-8.857h-3.69v8.204c0 1.959-1.42 3.35-3.408 3.35-1.986 0-3.435-1.391-3.435-3.35v-8.204h-3.69z" transform="matrix(6.5145038 0 0 -6.5145038 0 20.030914)"/><path d="m0 0h3.975l4.031-10.76 4.059 10.76h3.72l-5.82-14.62h-4.145z" transform="matrix(6.5145038 0 0 -6.5145038 237.84453 20.030914)"/><path d="m0 0c2.271 0 4.002 1.817 4.002 4.23 0 2.385-1.731 4.202-4.002 4.202s-3.975-1.817-3.975-4.202c0-2.413 1.704-4.23 3.975-4.23m4.002-1.278c-1.163-1.305-2.781-2.1-4.74-2.1-4.003 0-7.07 3.293-7.07 7.608 0 4.287 3.067 7.58 7.07 7.58 1.959 0 3.577-.795 4.74-2.129v1.845h3.691v-14.62h-3.691z" transform="matrix(6.5145038 0 0 -6.5145038 391.19595 95.143144)"/><path d="m0 165.30434h7.205041v36.55289h-7.205041z" stroke-width="6.514504"/><path d="m0 0h1.074l2.814-3.76v3.76h1.107v-5.611h-1.075l-2.814 3.759v-3.759h-1.106z" transform="matrix(6.5145038 0 0 -6.5145038 16.090824 165.30434)"/><path d="m0 0h-1.732v.978h4.57v-.978h-1.732v-4.634h-1.106z" transform="matrix(6.5145038 0 0 -6.5145038 66.447941 171.68856)"/><path d="m0 0h3.712v-.978h-2.606v-1.338h2.526v-.979h-2.526v-1.339h2.606v-.977h-3.712z" transform="matrix(6.5145038 0 0 -6.5145038 91.463631 165.30434)"/><path d="m0 0c .489 0 .818.345.818.786 0 .457-.329.794-.818.794h-1.25v-1.58zm-.561-1.01h-.689v-2.044h-1.107v5.612h2.357c1.179 0 1.956-.762 1.956-1.78 0-.801-.489-1.451-1.267-1.692l1.428-2.14h-1.315z" transform="matrix(6.5145038 0 0 -6.5145038 139.21494 181.98147)"/><path d="m0 0h1.074l2.814-3.76v3.76h1.107v-5.611h-1.075l-2.814 3.759v-3.759h-1.106z" transform="matrix(6.5145038 0 0 -6.5145038 160.32194 165.30434)"/><path d="m0 0h1.716l-.858 2.148zm.281 3.391h1.226l2.285-5.612h-1.186l-.498 1.242h-2.501l-.489-1.242h-1.122z" transform="matrix(6.5145038 0 0 -6.5145038 212.17739 187.38851)"/><path d="m0 0h-1.731v.978h4.569v-.978h-1.732v-4.634h-1.106z" transform="matrix(6.5145038 0 0 -6.5145038 248.00716 171.68856)"/><path d="m273.02285 165.30434h7.20504v36.55289h-7.20504z" stroke-width="6.514504"/><path d="m0 0c1.019 0 1.804.81 1.804 1.868 0 1.059-.785 1.876-1.804 1.876-1.026 0-1.812-.817-1.812-1.876 0-1.058.786-1.868 1.812-1.868m0 4.754c1.659 0 2.942-1.259 2.942-2.886 0-1.628-1.283-2.886-2.942-2.886-1.668 0-2.95 1.258-2.95 2.886 0 1.627 1.282 2.886 2.95 2.886" transform="matrix(6.5145038 0 0 -6.5145038 307.28914 195.72708)"/><path d="m0 0h1.074l2.815-3.76v3.76h1.106v-5.611h-1.074l-2.815 3.759v-3.759h-1.106z" transform="matrix(6.5145038 0 0 -6.5145038 334.25919 165.30434)"/><path d="m0 0h1.716l-.859 2.148zm.28 3.391h1.228l2.284-5.612h-1.187l-.497 1.242h-2.501l-.489-1.242h-1.122z" transform="matrix(6.5145038 0 0 -6.5145038 386.11464 187.38851)"/><path d="m0 0h1.106v-4.634h2.606v-.977h-3.712z" transform="matrix(6.5145038 0 0 -6.5145038 417.12368 165.30434)"/></g></svg>

<?xml version="1.0" encoding="UTF-8" standalone="no"?>
<svg
   xmlns:dc="http://purl.org/dc/elements/1.1/"
   xmlns:cc="http://creativecommons.org/ns#"
   xmlns:rdf="http://www.w3.org/1999/02/22-rdf-syntax-ns#"
   xmlns:svg="http://www.w3.org/2000/svg"
   xmlns="http://www.w3.org/2000/svg"
   xmlns:sodipodi="http://sodipodi.sourceforge.net/DTD/sodipodi-0.dtd"
   xmlns:inkscape="http://www.inkscape.org/namespaces/inkscape"
   width="441.31204"
   height="202.36078"
   version="1.1"
   viewBox="0 0 441.31204 202.35837"
   xml:space="preserve"
   id="svg172"
   sodipodi:docname="Nova International - Dark.svg"
   inkscape:version="0.92.0 r15299"><metadata
     id="metadata176"><rdf:RDF><cc:Work
         rdf:about=""><dc:format>image/svg+xml</dc:format><dc:type
           rdf:resource="http://purl.org/dc/dcmitype/StillImage" /><dc:title></dc:title></cc:Work></rdf:RDF></metadata><sodipodi:namedview
     pagecolor="#ffffff"
     bordercolor="#666666"
     borderopacity="1"
     objecttolerance="10"
     gridtolerance="10"
     guidetolerance="10"
     inkscape:pageopacity="0"
     inkscape:pageshadow="2"
     inkscape:window-width="1920"
     inkscape:window-height="1017"
     id="namedview174"
     showgrid="false"
     fit-margin-top="0"
     fit-margin-left="0"
     fit-margin-right="0"
     fit-margin-bottom="0"
     inkscape:zoom="0.94666667"
     inkscape:cx="188.09307"
     inkscape:cy="79.515783"
     inkscape:window-x="-8"
     inkscape:window-y="-8"
     inkscape:window-maximized="1"
     inkscape:current-layer="svg172" /><defs
     id="defs64"><clipPath
       id="clipPath28"><path
         d="M 0,841.89 H 595.28 V 0 H 0 Z"
         id="path2"
         inkscape:connector-curvature="0" /></clipPath><clipPath
       id="clipPath36"><path
         d="m 280.44,436.06 h 20.324 V 415.475 H 280.44 Z"
         id="path5"
         inkscape:connector-curvature="0" /></clipPath><clipPath
       id="clipPath40"><path
         d="m 298.45,430.7 c -1.023,0.463 -2.716,1.713 -3.085,1.992 -1.459,1.1 -4.38,3.363 -4.38,3.363 0,0 5.179,-5.191 6.936,-7.336 0.393,-0.481 0.757,-0.938 1.088,-1.368 0.417,-0.189 0.963,-0.415 1.275,-0.46 0.286,-0.04 0.405,0.025 0.463,0.138 0.079,0.17 0.011,0.977 -2.297,3.671"
         id="path8"
         inkscape:connector-curvature="0" /></clipPath><linearGradient
       id="linearGradient52"
       x2="1"
       gradientTransform="matrix(14.733,-12.771,-12.771,-14.733,288.35,438.02)"
       gradientUnits="userSpaceOnUse"><stop
         stop-color="#7c7b7c"
         offset="0"
         id="stop11" /><stop
         stop-color="#bcbcbb"
         offset=".16096"
         id="stop13" /><stop
         stop-color="#bcbcbb"
         offset=".5"
         id="stop15" /><stop
         stop-color="#bcbcbb"
         offset=".83904"
         id="stop17" /><stop
         stop-color="#7c7b7c"
         offset="1"
         id="stop19" /></linearGradient><clipPath
       id="clipPath56"><path
         d="m 299.14,422.36 c -0.5,0.843 -1.34,1.957 -2.274,3.104 -0.827,0.447 -1.948,1.124 -3.301,2.098 -4.051,2.916 -8.9,6.795 -8.9,6.795 0,0 2.926,-2.994 7.297,-7.584 1.953,-2.052 3.373,-3.833 4.328,-5.17 0.626,-0.326 3.012,-1.512 3.39,-0.849 0.076,0.142 0.077,0.565 -0.54,1.606"
         id="path22"
         inkscape:connector-curvature="0" /></clipPath><linearGradient
       id="linearGradient68"
       x2="1"
       gradientTransform="matrix(14.733,-12.771,-12.771,-14.733,284.71,433.82)"
       gradientUnits="userSpaceOnUse"><stop
         stop-color="#7c7b7c"
         offset="0"
         id="stop25" /><stop
         stop-color="#bcbcbb"
         offset=".16096"
         id="stop27" /><stop
         stop-color="#bcbcbb"
         offset=".5"
         id="stop29" /><stop
         stop-color="#bcbcbb"
         offset=".83904"
         id="stop31" /><stop
         stop-color="#7c7b7c"
         offset="1"
         id="stop33" /></linearGradient><clipPath
       id="clipPath72"><path
         d="m 294.19,418.26 c -0.389,0.584 -0.908,1.3 -1.499,2.068 -0.409,0.261 -0.908,0.581 -1.524,0.979 -3.166,2.047 -10.577,7.903 -10.577,7.903 l 0.009,-0.008 c 0.191,-0.186 3.944,-3.832 7.104,-7.372 1.565,-1.753 2.684,-3.168 3.398,-4.21 1.265,-0.822 3.086,-1.788 3.72,-1.431 0.136,0.104 0.397,0.533 -0.631,2.071"
         id="path36"
         inkscape:connector-curvature="0" /></clipPath><linearGradient
       id="linearGradient84"
       x2="1"
       gradientTransform="matrix(14.725,-12.765,-12.765,-14.725,280.44,428.9)"
       gradientUnits="userSpaceOnUse"><stop
         stop-color="#7c7b7c"
         offset="0"
         id="stop39" /><stop
         stop-color="#bcbcbb"
         offset=".16096"
         id="stop41" /><stop
         stop-color="#bcbcbb"
         offset=".5"
         id="stop43" /><stop
         stop-color="#bcbcbb"
         offset=".83904"
         id="stop45" /><stop
         stop-color="#7c7b7c"
         offset="1"
         id="stop47" /></linearGradient><clipPath
       id="clipPath88"><path
         d="m 287.54,417.38 c -0.003,0.004 -0.006,0.008 -0.01,0.013 -0.675,0.456 -1.304,0.875 -2.234,1.555 -2.351,1.72 -4.598,3.99 -4.838,3.793 -0.01,-0.008 -0.015,-0.022 -0.017,-0.042 0,-0.01 0.001,-0.02 0.002,-0.031 0.001,-0.003 0.001,-0.006 0.001,-0.008 0.036,-0.224 0.385,-0.881 2.355,-2.847 1.381,-1.377 2.501,-2.515 2.812,-3.003 0.719,-0.515 1.878,-1.172 2.57,-1.335 0.051,-0.01 0.089,-0.005 0.13,-0.002 0.476,0.067 -0.248,1.202 -0.771,1.907"
         id="path50"
         inkscape:connector-curvature="0" /></clipPath><linearGradient
       id="linearGradient100"
       x2="1"
       gradientTransform="matrix(14.683,-12.729,-12.729,-14.683,277.24,425.19)"
       gradientUnits="userSpaceOnUse"><stop
         stop-color="#7c7b7c"
         offset="0"
         id="stop53" /><stop
         stop-color="#bcbcbb"
         offset=".16096"
         id="stop55" /><stop
         stop-color="#bcbcbb"
         offset=".5"
         id="stop57" /><stop
         stop-color="#bcbcbb"
         offset=".83904"
         id="stop59" /><stop
         stop-color="#7c7b7c"
         offset="1"
         id="stop61" /></linearGradient></defs><g
     id="g84"
     clip-path="url(#clipPath36)"
     transform="matrix(6.5145038,0,0,-6.5145038,-1720.5456,2840.8762)"><g
       id="g70"
       clip-path="url(#clipPath40)"><path
         inkscape:connector-curvature="0"
         style="fill:url(#linearGradient52)"
         id="path68"
         d="m 298.45,430.7 c -1.023,0.463 -2.716,1.713 -3.085,1.992 -1.459,1.1 -4.38,3.363 -4.38,3.363 0,0 5.179,-5.191 6.936,-7.336 0.393,-0.481 0.757,-0.938 1.088,-1.368 0.417,-0.189 0.963,-0.415 1.275,-0.46 0.286,-0.04 0.405,0.025 0.463,0.138 0.079,0.17 0.011,0.977 -2.297,3.671" /></g><g
       id="g74"
       clip-path="url(#clipPath56)"><path
         inkscape:connector-curvature="0"
         style="fill:url(#linearGradient68)"
         id="path72"
         d="m 299.14,422.36 c -0.5,0.843 -1.34,1.957 -2.274,3.104 -0.827,0.447 -1.948,1.124 -3.301,2.098 -4.051,2.916 -8.9,6.795 -8.9,6.795 0,0 2.926,-2.994 7.297,-7.584 1.953,-2.052 3.373,-3.833 4.328,-5.17 0.626,-0.326 3.012,-1.512 3.39,-0.849 0.076,0.142 0.077,0.565 -0.54,1.606" /></g><g
       id="g78"
       clip-path="url(#clipPath72)"><path
         inkscape:connector-curvature="0"
         style="fill:url(#linearGradient84)"
         id="path76"
         d="m 294.19,418.26 c -0.389,0.584 -0.908,1.3 -1.499,2.068 -0.409,0.261 -0.908,0.581 -1.524,0.979 -3.166,2.047 -10.577,7.903 -10.577,7.903 l 0.009,-0.008 c 0.191,-0.186 3.944,-3.832 7.104,-7.372 1.565,-1.753 2.684,-3.168 3.398,-4.21 1.265,-0.822 3.086,-1.788 3.72,-1.431 0.136,0.104 0.397,0.533 -0.631,2.071" /></g><g
       id="g82"
       clip-path="url(#clipPath88)"><path
         inkscape:connector-curvature="0"
         style="fill:url(#linearGradient100)"
         id="path80"
         d="m 287.54,417.38 c -0.003,0.004 -0.006,0.008 -0.01,0.013 -0.675,0.456 -1.304,0.875 -2.234,1.555 -2.351,1.72 -4.598,3.99 -4.838,3.793 -0.01,-0.008 -0.015,-0.022 -0.017,-0.042 0,-0.01 0.001,-0.02 0.002,-0.031 0.001,-0.003 0.001,-0.006 0.001,-0.008 0.036,-0.224 0.385,-0.881 2.355,-2.847 1.381,-1.377 2.501,-2.515 2.812,-3.003 0.719,-0.515 1.878,-1.172 2.57,-1.335 0.051,-0.01 0.089,-0.005 0.13,-0.002 0.476,0.067 -0.248,1.202 -0.771,1.907" /></g></g><g
     id="g88"
     transform="matrix(6.5145038,0,0,-6.5145038,107.16359,90.452704)"
     style="fill:#d0343a;fill-opacity:1"><path
       style="fill:#d0343a;fill-opacity:1"
       inkscape:connector-curvature="0"
       id="path86"
       d="M 0,0 C -0.063,0.181 -0.126,0.42 -0.118,0.505 -0.119,0.326 0.134,-0.281 2.241,-2.382 4.004,-4.14 5.348,-5.514 5.116,-5.636 4.883,-5.756 3.821,-5.144 2.841,-4.257 1.572,-3.109 0.575,-1.636 0,0" /></g><g
     id="g92"
     transform="matrix(6.5145038,0,0,-6.5145038,179.01856,135.40277)"
     style="fill:#d0343a;fill-opacity:1"><path
       style="fill:#d0343a;fill-opacity:1"
       inkscape:connector-curvature="0"
       id="path90"
       d="m 0,0 c -1.13,-0.125 -2.294,-0.063 -3.404,0.178 0.721,-0.114 -0.077,1.145 -0.641,1.905 -0.821,1.106 -2.067,2.55 -3.207,3.782 -1.896,2.051 -4.367,4.443 -4.367,4.443 -0.008,1.266 0.211,2.48 0.619,3.605 0,0 3.871,-3.746 7.114,-7.38 C -1.791,4.185 -0.494,2.446 0.102,1.392 0.436,0.8 0.64,0.098 0,0" /></g><g
     id="g96"
     transform="matrix(6.5145038,0,0,-6.5145038,218.75704,29.476944)"
     style="fill:#d0343a;fill-opacity:1"><path
       style="fill:#d0343a;fill-opacity:1"
       inkscape:connector-curvature="0"
       id="path94"
       d="M 0,0 C -1.896,2.105 -3.813,3.949 -3.813,3.949 -0.226,2.704 2.463,-0.396 3.072,-4.222 3.102,-4.414 3.07,-4.499 3.052,-4.534 3.14,-4.346 3.057,-3.396 0,0" /></g><g
     id="g100"
     transform="matrix(6.5145038,0,0,-6.5145038,239.01714,77.684274)"
     style="fill:#d0343a;fill-opacity:1"><path
       style="fill:#d0343a;fill-opacity:1"
       inkscape:connector-curvature="0"
       id="path98"
       d="m 0,0 c -0.16,-1.218 -0.605,-2.475 -1.121,-3.407 0.076,0.142 0.077,0.565 -0.54,1.606 -1.182,1.994 -4.257,5.503 -6.026,7.38 -2.518,2.671 -5.767,5.882 -5.767,5.882 0,0 0.844,0.267 1.692,0.372 1.332,0.165 1.95,0.058 1.95,0.058 0,0 5.179,-5.191 6.936,-7.336 C -1.119,2.408 0.093,0.702 0,0" /></g><g
     id="g104"
     transform="matrix(6.5145038,0,0,-6.5145038,218.49646,117.16216)"
     style="fill:#d0343a;fill-opacity:1"><path
       style="fill:#d0343a;fill-opacity:1"
       inkscape:connector-curvature="0"
       id="path102"
       d="m 0,0 c -0.83,-0.785 -1.843,-1.466 -2.829,-1.915 0.136,0.104 0.397,0.533 -0.631,2.071 -1.061,1.59 -3.076,4.16 -4.923,6.124 -2.199,2.337 -7.264,7.451 -7.264,7.451 0,0 0.507,0.719 1.277,1.434 0.736,0.683 1.382,1.09 1.382,1.09 0,0 2.926,-2.994 7.297,-7.584 2.832,-2.976 4.542,-5.379 5.34,-6.689 C 0.077,1.278 0.437,0.415 0,0" /></g><g
     id="g108"
     transform="matrix(6.5145038,0,0,-6.5145038,0,20.030914)"
     style="fill:#d0343a;fill-opacity:1"><path
       style="fill:#d0343a;fill-opacity:1"
       inkscape:connector-curvature="0"
       id="path106"
       d="m 0,0 h 3.69 v -1.93 c 1.023,1.362 2.641,2.214 4.6,2.214 3.52,0 5.933,-2.555 5.933,-6.047 v -8.857 h -3.69 v 8.204 c 0,1.959 -1.42,3.35 -3.408,3.35 -1.986,0 -3.435,-1.391 -3.435,-3.35 V -14.62 H 0 Z" /></g><g
     id="g112"
     transform="matrix(6.5145038,0,0,-6.5145038,237.84453,20.030914)"
     style="fill:#d0343a;fill-opacity:1"><path
       style="fill:#d0343a;fill-opacity:1"
       inkscape:connector-curvature="0"
       id="path110"
       d="M 0,0 H 3.975 L 8.006,-10.76 12.065,0 h 3.72 L 9.965,-14.62 H 5.82 Z" /></g><g
     id="g116"
     transform="matrix(6.5145038,0,0,-6.5145038,391.19595,95.143144)"
     style="fill:#d0343a;fill-opacity:1"><path
       style="fill:#d0343a;fill-opacity:1"
       inkscape:connector-curvature="0"
       id="path114"
       d="M 0,0 C 2.271,0 4.002,1.817 4.002,4.23 4.002,6.615 2.271,8.432 0,8.432 -2.271,8.432 -3.975,6.615 -3.975,4.23 -3.975,1.817 -2.271,0 0,0 m 4.002,-1.278 c -1.163,-1.305 -2.781,-2.1 -4.74,-2.1 -4.003,0 -7.07,3.293 -7.07,7.608 0,4.287 3.067,7.58 7.07,7.58 1.959,0 3.577,-0.795 4.74,-2.129 v 1.845 H 7.693 V -3.094 H 4.002 Z" /></g><path
     style="fill:#d0343a;fill-opacity:1;stroke-width:6.51450396"
     inkscape:connector-curvature="0"
     id="path118"
     d="m 0,165.30434 h 7.205041 v 36.55289 H 0 Z" /><g
     id="g122"
     transform="matrix(6.5145038,0,0,-6.5145038,16.090824,165.30434)"
     style="fill:#d0343a;fill-opacity:1"><path
       style="fill:#d0343a;fill-opacity:1"
       inkscape:connector-curvature="0"
       id="path120"
       d="M 0,0 H 1.074 L 3.888,-3.76 V 0 H 4.995 V -5.611 H 3.92 L 1.106,-1.852 V -5.611 H 0 Z" /></g><g
     id="g126"
     transform="matrix(6.5145038,0,0,-6.5145038,66.447941,171.68856)"
     style="fill:#d0343a;fill-opacity:1"><path
       style="fill:#d0343a;fill-opacity:1"
       inkscape:connector-curvature="0"
       id="path124"
       d="m 0,0 h -1.732 v 0.978 h 4.57 V 0 H 1.106 V -4.634 H 0 Z" /></g><g
     id="g130"
     transform="matrix(6.5145038,0,0,-6.5145038,91.463631,165.30434)"
     style="fill:#d0343a;fill-opacity:1"><path
       style="fill:#d0343a;fill-opacity:1"
       inkscape:connector-curvature="0"
       id="path128"
       d="M 0,0 H 3.712 V -0.978 H 1.106 V -2.316 H 3.632 V -3.295 H 1.106 V -4.634 H 3.712 V -5.611 H 0 Z" /></g><g
     id="g134"
     transform="matrix(6.5145038,0,0,-6.5145038,139.21494,181.98147)"
     style="fill:#d0343a;fill-opacity:1"><path
       style="fill:#d0343a;fill-opacity:1"
       inkscape:connector-curvature="0"
       id="path132"
       d="M 0,0 C 0.489,0 0.818,0.345 0.818,0.786 0.818,1.243 0.489,1.58 0,1.58 H -1.25 V 0 Z M -0.561,-1.01 H -1.25 V -3.054 H -2.357 V 2.558 H 0 c 1.179,0 1.956,-0.762 1.956,-1.78 0,-0.801 -0.489,-1.451 -1.267,-1.692 l 1.428,-2.14 H 0.802 Z" /></g><g
     id="g138"
     transform="matrix(6.5145038,0,0,-6.5145038,160.32194,165.30434)"
     style="fill:#d0343a;fill-opacity:1"><path
       style="fill:#d0343a;fill-opacity:1"
       inkscape:connector-curvature="0"
       id="path136"
       d="M 0,0 H 1.074 L 3.888,-3.76 V 0 H 4.995 V -5.611 H 3.92 L 1.106,-1.852 V -5.611 H 0 Z" /></g><g
     id="g142"
     transform="matrix(6.5145038,0,0,-6.5145038,212.17739,187.38851)"
     style="fill:#d0343a;fill-opacity:1"><path
       style="fill:#d0343a;fill-opacity:1"
       inkscape:connector-curvature="0"
       id="path140"
       d="M 0,0 H 1.716 L 0.858,2.148 Z M 0.281,3.391 H 1.507 L 3.792,-2.221 H 2.606 l -0.498,1.242 h -2.501 l -0.489,-1.242 h -1.122 z" /></g><g
     id="g146"
     transform="matrix(6.5145038,0,0,-6.5145038,248.00716,171.68856)"
     style="fill:#d0343a;fill-opacity:1"><path
       style="fill:#d0343a;fill-opacity:1"
       inkscape:connector-curvature="0"
       id="path144"
       d="M 0,0 H -1.731 V 0.978 H 2.838 V 0 H 1.106 V -4.634 H 0 Z" /></g><path
     style="fill:#d0343a;fill-opacity:1;stroke-width:6.51450396"
     inkscape:connector-curvature="0"
     id="path148"
     d="m 273.02285,165.30434 h 7.20504 v 36.55289 h -7.20504 z" /><g
     id="g152"
     transform="matrix(6.5145038,0,0,-6.5145038,307.28914,195.72708)"
     style="fill:#d0343a;fill-opacity:1"><path
       style="fill:#d0343a;fill-opacity:1"
       inkscape:connector-curvature="0"
       id="path150"
       d="M 0,0 C 1.019,0 1.804,0.81 1.804,1.868 1.804,2.927 1.019,3.744 0,3.744 -1.026,3.744 -1.812,2.927 -1.812,1.868 -1.812,0.81 -1.026,0 0,0 m 0,4.754 c 1.659,0 2.942,-1.259 2.942,-2.886 0,-1.628 -1.283,-2.886 -2.942,-2.886 -1.668,0 -2.95,1.258 -2.95,2.886 0,1.627 1.282,2.886 2.95,2.886" /></g><g
     id="g156"
     transform="matrix(6.5145038,0,0,-6.5145038,334.25919,165.30434)"
     style="fill:#d0343a;fill-opacity:1"><path
       style="fill:#d0343a;fill-opacity:1"
       inkscape:connector-curvature="0"
       id="path154"
       d="M 0,0 H 1.074 L 3.889,-3.76 V 0 H 4.995 V -5.611 H 3.921 L 1.106,-1.852 V -5.611 H 0 Z" /></g><g
     id="g160"
     transform="matrix(6.5145038,0,0,-6.5145038,386.11464,187.38851)"
     style="fill:#d0343a;fill-opacity:1"><path
       style="fill:#d0343a;fill-opacity:1"
       inkscape:connector-curvature="0"
       id="path158"
       d="M 0,0 H 1.716 L 0.857,2.148 Z M 0.28,3.391 H 1.508 L 3.792,-2.221 H 2.605 l -0.497,1.242 h -2.501 l -0.489,-1.242 h -1.122 z" /></g><g
     id="g164"
     transform="matrix(6.5145038,0,0,-6.5145038,417.12368,165.30434)"
     style="fill:#d0343a;fill-opacity:1"><path
       style="fill:#d0343a;fill-opacity:1"
       inkscape:connector-curvature="0"
       id="path162"
       d="M 0,0 H 1.106 V -4.634 H 3.712 V -5.611 H 0 Z" /></g></svg>
